resources/img/achievements/gear.svg

<svg xmlns="http://www.w3.org/2000/svg" width="64" height="64"><g style="opacity:.65;fill:#17152c;fill-opacity:1"><path d="m18.04 7.99-.63-1.4-1.4-.63a.5.5 0 0 1 0-.91l1.4-.63.63-1.4a.5.5 0 0 1 .91 0l.63 1.4 1.4.63a.5.5 0 0 1 0 .91l-1.4.63-.63 1.4c-.17.39-.73.39-.91 0zm3.24 4.73-.32-.72a.5.5 0 0 0-.91 0l-.32.72-.73.32a.5.5 0 0 0 0 .91l.72.32.32.73a.5.5 0 0 0 .91 0l.32-.72.73-.32a.5.5 0 0 0 0-.91zm-5.04 1.65 1.23.93c.4.3.51.86.26 1.3l-1.62 2.8c-.25.44-.79.62-1.25.42l-1.43-.6c-.2.13-.42.26-.64.37l-.19 1.54c-.06.5-.49.88-.99.88H8.38c-.5 0-.93-.38-.99-.88l-.19-1.54c-.22-.11-.43-.23-.64-.37l-1.43.6c-.46.2-1 .02-1.25-.42l-1.62-2.8c-.25-.44-.14-.99.26-1.3l1.23-.93V14c0-.12 0-.25.01-.37l-1.23-.93c-.4-.3-.51-.86-.26-1.3l1.62-2.8c.25-.44.79-.62 1.25-.42l1.43.6c.2-.13.42-.26.64-.37l.19-1.54c.05-.49.48-.87.98-.87h3.23c.5 0 .93.38.99.88l.19 1.54c.22.11.43.23.64.37l1.43-.6c.46-.2 1-.02 1.25.42l1.62 2.8c.25.44.14.99-.26 1.3l-1.23.93c.01.12.01.24.01.37s0 .24-.01.36zM13 14c0-1.66-1.34-3-3-3s-3 1.34-3 3 1.34 3 3 3 3-1.34 3-3z" style="fill:#17152c;fill-opacity:1" transform="matrix(1.13218 0 0 1.13218 19.267 16.54)"/></g></svg>

<?xml version="1.0" encoding="UTF-8" standalone="no"?>
<svg
   xmlns:dc="http://purl.org/dc/elements/1.1/"
   xmlns:cc="http://creativecommons.org/ns#"
   xmlns:rdf="http://www.w3.org/1999/02/22-rdf-syntax-ns#"
   xmlns:svg="http://www.w3.org/2000/svg"
   xmlns="http://www.w3.org/2000/svg"
   xmlns:sodipodi="http://sodipodi.sourceforge.net/DTD/sodipodi-0.dtd"
   xmlns:inkscape="http://www.inkscape.org/namespaces/inkscape"
   version="1.1"
   id="svg2"
   width="64"
   height="64"
   viewBox="0 0 64 64"
   sodipodi:docname="gear.svg"
   inkscape:version="1.0.1 (3bc2e813f5, 2020-09-07)">
  <metadata
     id="metadata8">
    <rdf:RDF>
      <cc:Work
         rdf:about="">
        <dc:format>image/svg+xml</dc:format>
        <dc:type
           rdf:resource="http://purl.org/dc/dcmitype/StillImage" />
        <dc:title />
        <cc:license
           rdf:resource="http://creativecommons.org/licenses/by/4.0/" />
      </cc:Work>
      <cc:License
         rdf:about="http://creativecommons.org/licenses/by/4.0/">
        <cc:permits
           rdf:resource="http://creativecommons.org/ns#Reproduction" />
        <cc:permits
           rdf:resource="http://creativecommons.org/ns#Distribution" />
        <cc:requires
           rdf:resource="http://creativecommons.org/ns#Notice" />
        <cc:requires
           rdf:resource="http://creativecommons.org/ns#Attribution" />
        <cc:permits
           rdf:resource="http://creativecommons.org/ns#DerivativeWorks" />
      </cc:License>
    </rdf:RDF>
  </metadata>
  <defs
     id="defs6" />
  <sodipodi:namedview
     pagecolor="#686868"
     bordercolor="#000000"
     borderopacity="1"
     objecttolerance="10"
     gridtolerance="10"
     guidetolerance="10"
     inkscape:pageopacity="0"
     inkscape:pageshadow="2"
     inkscape:window-width="1920"
     inkscape:window-height="1136"
     id="namedview4"
     showgrid="true"
     inkscape:pagecheckerboard="false"
     showguides="true"
     inkscape:guide-bbox="true"
     inkscape:snap-object-midpoints="true"
     inkscape:snap-others="true"
     inkscape:object-nodes="false"
     inkscape:snap-nodes="false"
     inkscape:zoom="7.375"
     inkscape:cx="34.070187"
     inkscape:cy="31.958955"
     inkscape:window-x="0"
     inkscape:window-y="27"
     inkscape:window-maximized="1"
     inkscape:current-layer="svg2"
     inkscape:document-rotation="0"
     showborder="true"
     borderlayer="true"
     inkscape:showpageshadow="false"
     inkscape:snap-global="false"
     inkscape:snap-center="true">
    <inkscape:grid
       type="xygrid"
       id="grid4526"
       dotted="false"
       empspacing="8"
       snapvisiblegridlinesonly="true" />
    <sodipodi:guide
       position="32,69.288136"
       orientation="1,0"
       id="guide838"
       inkscape:locked="false" />
    <sodipodi:guide
       position="60.338983,96"
       orientation="0,1"
       id="guide842"
       inkscape:locked="false" />
  </sodipodi:namedview>
  <g
     id="g6"
     transform="matrix(1.1321827,0,0,1.1321827,19.266643,16.540732)"
     style="opacity:0.65;fill:#17152c;fill-opacity:1">
    <path
       d="m 18.04,7.99 -0.63,-1.4 -1.4,-0.63 c -0.39,-0.18 -0.39,-0.73 0,-0.91 l 1.4,-0.63 0.63,-1.4 c 0.18,-0.39 0.73,-0.39 0.91,0 l 0.63,1.4 1.4,0.63 c 0.39,0.18 0.39,0.73 0,0.91 l -1.4,0.63 -0.63,1.4 c -0.17,0.39 -0.73,0.39 -0.91,0 z M 21.28,12.72 20.96,12 c -0.18,-0.39 -0.73,-0.39 -0.91,0 L 19.73,12.72 19,13.04 c -0.39,0.18 -0.39,0.73 0,0.91 l 0.72,0.32 0.32,0.73 c 0.18,0.39 0.73,0.39 0.91,0 L 21.27,14.28 22,13.96 c 0.39,-0.18 0.39,-0.73 0,-0.91 z m -5.04,1.65 1.23,0.93 c 0.4,0.3 0.51,0.86 0.26,1.3 l -1.62,2.8 c -0.25,0.44 -0.79,0.62 -1.25,0.42 l -1.43,-0.6 c -0.2,0.13 -0.42,0.26 -0.64,0.37 l -0.19,1.54 c -0.06,0.5 -0.49,0.88 -0.99,0.88 H 8.38 c -0.5,0 -0.93,-0.38 -0.99,-0.88 L 7.2,19.59 C 6.98,19.48 6.77,19.36 6.56,19.22 l -1.43,0.6 c -0.46,0.2 -1,0.02 -1.25,-0.42 L 2.26,16.6 C 2.01,16.16 2.12,15.61 2.52,15.3 l 1.23,-0.93 c 0,-0.12 0,-0.25 0,-0.37 0,-0.12 0,-0.25 0.01,-0.37 L 2.53,12.7 C 2.13,12.4 2.02,11.84 2.27,11.4 L 3.89,8.6 C 4.14,8.16 4.68,7.98 5.14,8.18 l 1.43,0.6 C 6.77,8.65 6.99,8.52 7.21,8.41 L 7.4,6.87 C 7.45,6.38 7.88,6 8.38,6 h 3.23 c 0.5,0 0.93,0.38 0.99,0.88 l 0.19,1.54 c 0.22,0.11 0.43,0.23 0.64,0.37 l 1.43,-0.6 c 0.46,-0.2 1,-0.02 1.25,0.42 l 1.62,2.8 c 0.25,0.44 0.14,0.99 -0.26,1.3 l -1.23,0.93 c 0.01,0.12 0.01,0.24 0.01,0.37 0,0.13 0,0.24 -0.01,0.36 z M 13,14 c 0,-1.66 -1.34,-3 -3,-3 -1.66,0 -3,1.34 -3,3 0,1.66 1.34,3 3,3 1.66,0 3,-1.34 3,-3 z"
       id="path4"
       style="fill:#17152c;fill-opacity:1" />
  </g>
</svg>
